X: 2137
T: Polonäs, sexdregasamlingen del 2 nr 77
B: Sexdregasamlingen del 2 nr 77
S: efter Anders Larsson
O: Sexdrega, Västergötland
R: Slängpolska
Z: 2011-11-16 av Nils L
M: 3/4
L: 1/16
K: Bm
B4 B2d2 c2B2 | c4 c2e2 d2c2 | B4 B2d2 c2B2 | c2B^A B4 B,4 ::
d2f2 d2f2 e2d2 | c2e2 c2e2 d2c2 | d2f2 d2f2 e2d2 | c2e2 c2e2 d2c2 |
B4 B2d2 c2B2 | c4 c2e2 d2c2 | B4 B2d2 c2B2 | c2B^A B4 B,4 :|
(:musicend:)
(:music:)
